!!!!SEGMENT: pl-wtm--r-258-m--003_moniuszko-stanislaw--msza-graduale.krn
!!!cenid: 18xx:2537
!!!COM: Moniuszko, Stanisław
!!!COM-rismID: pe30008351
!!!CDT: 1819/05/05-1872/06/04
!!!CNT: Polish
!!!OPR: Msza
!!!OTL: Graduale
!!!OMV: 003
!!!PDT: 1870
!!!AGN: Sacred; Mass
!!!SMS-siglum: PL-Wtm
!!!SMS-shelfmark: R 258/M
!!!SMS-shelfwork: 001-003 M
!!!SMS-variant:
!!!SMS-altvar:
!!!NIFC-rismSourceID: 1001095348
!!!NIFC-islandoraID:
!!!URL-pdf-islandora:
!!!URL-scan:
!!!ONB-nifc: UWAGA: części Mszy: 1. Kyrie, 2. Et in terra, 3. Graduale, 4. Credo, 5. Offertorium, 6. Sanctus, 7. Benedictus, 8. Agnus
!!!OMD: Andante
!!!AIN: 1 alto 1 bass 1 empty 1 soprn 1 tenor
!!!key:
**kern	**kern	**dynam	**kern	**text	**dynam	**kern	**text	**dynam	**kern	**text	**dynam	**kern	**text	**text	**dynam
*part5	*part5	*part5	*part4	*part4	*part4	*part3	*part3	*part3	*part2	*part2	*part2	*part1	*part1	*part1	*part1
*staff6	*staff5	*	*staff4	*staff4	*	*staff3	*staff3	*	*staff2	*staff2	*	*staff1	*staff1	*staff1	*
*Iempty	*Iorgan	*	*Ibass	*	*	*Itenor	*	*	*Ialto	*	*	*Isoprn	*	*	*
*	*I"Organo	*	*I"Basso	*	*	*I"Tenore	*	*	*I"Alto	*	*	*I"Soprano	*	*	*
*	*I'Org.	*	*I'B.	*	*	*I'T.	*	*	*I'A.	*	*	*I'S.	*	*	*
*clefF4	*clefG2	*	*clefF4	*	*	*clefGv2	*	*	*clefG2	*	*	*clefG2	*	*	*
*k[b-e-a-]	*k[b-e-a-]	*	*k[b-e-a-]	*	*	*k[b-e-a-]	*	*	*k[b-e-a-]	*	*	*k[b-e-a-]	*	*	*
*E-:	*E-:	*	*E-:	*	*	*E-:	*	*	*E-:	*	*	*E-:	*	*	*
*M3/4	*M3/4	*	*M3/4	*	*	*M3/4	*	*	*M3/4	*	*	*M3/4	*	*	*
=1	=1	=1	=1	=1	=1	=1	=1	=1	=1	=1	=1	=1	=1	=1	=1
*	*2\right	*	*	*	*	*	*	*	*	*	*	*	*	*	*
!!LO:TX:t=P:problem:all\right:global
2.r	(>4g/	p	2.ryy	.	.	2.r	.	.	2.ryy	.	.	2.ryy	.	.	.
.	8f/L	.	.	.	.	.	.	.	.	.	.	.	.	.	.
.	8e-/	.	.	.	.	.	.	.	.	.	.	.	.	.	.
.	8G</	.	.	.	.	.	.	.	.	.	.	.	.	.	.
.	8A-</J	.	.	.	.	.	.	.	.	.	.	.	.	.	.
=2	=2	=2	=2	=2	=2	=2	=2	=2	=2	=2	=2	=2	=2	=2	=2
*^	*	*	*	*	*	*	*	*	*	*	*	*	*	*	*
*	*	*^	*	*	*	*	*	*	*	*	*	*	*	*	*	*
*2\right	*2\right	*	*	*	*	*	*	*	*	*	*	*	*	*	*	*	*
4rBB	2.rEE	4B-</	2ryy	.	2.ryy	.	.	2.r	.	.	2.ryy	.	.	2.ryy	.	.	.
4rBB	.	4c< 4An</	.	.	.	.	.	.	.	.	.	.	.	.	.	.	.
!LO:TX:b:Bi:t=1:prawdopodobnie:problem	!	!	!	!	!	!	!	!	!	!	!	!	!	!	!	!	!
(>4A-X/	.	8f/L	4d\	.	.	.	.	.	.	.	.	.	.	.	.	.	.
.	.	8b-/J)	.	.	.	.	.	.	.	.	.	.	.	.	.	.	.
=3	=3	=3	=3	=3	=3	=3	=3	=3	=3	=3	=3	=3	=3	=3	=3	=3	=3
*	*^	*	*	*	*	*	*	*	*	*	*	*	*	*	*	*	*
*	*	*	*	*	*	*	*	*	*2\right	*	*	*	*	*	*	*	*	*
!	!	!	!	!	!	!	!	!	!LO:TX:a:Bi:t=Tenore Solo.:rj	!	!	!	!	!	!	!	!	!
4G/)	2.EE-/	2.rGG	8e-/L	4e-\	.	2.ryy	.	.	4B-\	Do-	.	2.ryy	.	.	2.ryy	.	.	.
.	.	.	8B-/	.	.	.	.	.	.	.	.	.	.	.	.	.	.	.
2ryy	.	.	8e-/	2ryy	.	.	.	.	8c\	-mi-	.	.	.	.	.	.	.	.
.	.	.	8b-/	.	.	.	.	.	8d\	-ne	.	.	.	.	.	.	.	.
.	.	.	8g/	.	.	.	.	.	8.e-\	Je-	.	.	.	.	.	.	.	.
.	.	.	8e-/J	.	.	.	.	.	.	.	.	.	.	.	.	.	.	.
.	.	.	.	.	.	.	.	.	16e-\	-su	.	.	.	.	.	.	.	.
*	*v	*v	*	*	*	*	*	*	*	*	*	*	*	*	*	*	*	*
*	*	*v	*v	*	*	*	*	*	*	*	*	*	*	*	*	*	*
=4	=4	=4	=4	=4	=4	=4	=4	=4	=4	=4	=4	=4	=4	=4	=4	=4
2.FF/	2.r	8r	.	2.ryy	.	.	2e-\	Chri-	.	2.ryy	.	.	2.ryy	.	.	.
.	.	8A-/L	.	.	.	.	.	.	.	.	.	.	.	.	.	.
.	.	8e-/	.	.	.	.	.	.	.	.	.	.	.	.	.	.
.	.	8a-/	.	.	.	.	.	.	.	.	.	.	.	.	.	.
.	.	8c/	.	.	.	.	4A-/	-ste	.	.	.	.	.	.	.	.
.	.	8e-/J	.	.	.	.	.	.	.	.	.	.	.	.	.	.
=5	=5	=5	=5	=5	=5	=5	=5	=5	=5	=5	=5	=5	=5	=5	=5	=5
2.BB-/	2.r	8d/L	.	2.ryy	.	.	8.A-/	fi-	.	2.ryy	.	.	2.ryy	.	.	.
.	.	8B-/	.	.	.	.	.	.	.	.	.	.	.	.	.	.
.	.	.	.	.	.	.	16A-/	-li	.	.	.	.	.	.	.	.
.	.	8f/	.	.	.	.	8G/	u-	.	.	.	.	.	.	.	.
.	.	8c/	.	.	.	.	8A-/	-ni-	.	.	.	.	.	.	.	.
.	.	8d/	.	.	.	.	8.B-/	-ge-	.	.	.	.	.	.	.	.
.	.	8f/J	.	.	.	.	.	.	.	.	.	.	.	.	.	.
.	.	.	.	.	.	.	16F/	-ni-	.	.	.	.	.	.	.	.
!!LO:LB:g=original
=6	=6	=6	=6	=6	=6	=6	=6	=6	=6	=6	=6	=6	=6	=6	=6	=6
2.E-/	2.r	8e-/L	.	2.ryy	.	.	2G/	-te	.	2.ryy	.	.	2.ryy	.	.	.
.	.	8B-/	.	.	.	.	.	.	.	.	.	.	.	.	.	.
.	.	8g/	.	.	.	.	.	.	.	.	.	.	.	.	.	.
.	.	8e-/	.	.	.	.	.	.	.	.	.	.	.	.	.	.
.	.	8B-/	.	.	.	.	4r	.	.	.	.	.	.	.	.	.
.	.	8g/J	.	.	.	.	.	.	.	.	.	.	.	.	.	.
=7	=7	=7	=7	=7	=7	=7	=7	=7	=7	=7	=7	=7	=7	=7	=7	=7
2.D/	2.r	8f/L	.	2.ryy	.	.	4B-\	do-	.	2.ryy	.	.	2.ryy	.	.	.
.	.	8B-/	.	.	.	.	.	.	.	.	.	.	.	.	.	.
.	.	8b- 8f/	.	.	.	.	8c\L	-mi-	.	.	.	.	.	.	.	.
.	.	8B-/	.	.	.	.	8d\J	.	.	.	.	.	.	.	.	.
.	.	8f/	.	.	.	.	8e-\L	-ne	.	.	.	.	.	.	.	.
.	.	8B-/J	.	.	.	.	8f\J	.	.	.	.	.	.	.	.	.
=8	=8	=8	=8	=8	=8	=8	=8	=8	=8	=8	=8	=8	=8	=8	=8	=8
*	*	*^	*	*	*	*	*	*	*	*	*	*	*	*	*	*
2.C/	2.r	8g/L	2f\	.	2.ryy	.	.	2f\	de-	.	2.ryy	.	.	2.ryy	.	.	.
.	.	8B-/	.	.	.	.	.	.	.	.	.	.	.	.	.	.	.
.	.	8b-/	.	.	.	.	.	.	.	.	.	.	.	.	.	.	.
.	.	8B-/	.	.	.	.	.	.	.	.	.	.	.	.	.	.	.
.	.	8g/	4e-\	.	.	.	.	4e-\	-us	.	.	.	.	.	.	.	.
.	.	8B-/J	.	.	.	.	.	.	.	.	.	.	.	.	.	.	.
=9	=9	=9	=9	=9	=9	=9	=9	=9	=9	=9	=9	=9	=9	=9	=9	=9	=9
2.F 2.FF/	2.r	8a-/L	2c\	.	2.ryy	.	.	4e-\	fi-	.	2.ryy	.	.	2.ryy	.	.	.
.	.	8e-/	.	.	.	.	.	.	.	.	.	.	.	.	.	.	.
.	.	8a- 8f/	.	.	.	.	.	8d\L	-li-	.	.	.	.	.	.	.	.
.	.	8e-/	.	.	.	.	.	8e-\J	.	.	.	.	.	.	.	.	.
.	.	8a- 8f/	4ryy	.	.	.	.	8f\L	-us	.	.	.	.	.	.	.	.
.	.	8c/J	.	.	.	.	.	8c\J	.	.	.	.	.	.	.	.	.
*	*	*v	*v	*	*	*	*	*	*	*	*	*	*	*	*	*	*
=10	=10	=10	=10	=10	=10	=10	=10	=10	=10	=10	=10	=10	=10	=10	=10	=10
2.BB-/	2.r	8gL 8e-/	.	2.ryy	.	.	4e-\	pa-	.	2.ryy	.	.	2.ryy	.	.	.
.	.	8B-/	.	.	.	.	.	.	.	.	.	.	.	.	.	.
.	.	8f 8d/	.	.	.	.	4d\	-tris	.	.	.	.	.	.	.	.
.	.	8cc/	.	.	.	.	.	.	.	.	.	.	.	.	.	.
.	.	8a- 8f/	.	.	.	.	8r	.	.	.	.	.	.	.	.	.
.	.	8B-/J	.	.	.	.	8B-\	qui	.	.	.	.	.	.	.	.
=11	=11	=11	=11	=11	=11	=11	=11	=11	=11	=11	=11	=11	=11	=11	=11	=11
2.E-/	2.r	8gL 8e-/	.	2.ryy	.	.	4g\	tol-	.	2.ryy	.	.	2.ryy	.	.	.
.	.	8B-/	.	.	.	.	.	.	.	.	.	.	.	.	.	.
.	.	8g 8e-/	.	.	.	.	8f\	-lis	.	.	.	.	.	.	.	.
.	.	8b-/	.	.	.	.	8e-\	pec-	.	.	.	.	.	.	.	.
.	.	8g 8e-/	.	.	.	.	8e-\	-ca-	.	.	.	.	.	.	.	.
.	.	8B-/J	.	.	.	.	8d\	-ta	.	.	.	.	.	.	.	.
=12	=12	=12	=12	=12	=12	=12	=12	=12	=12	=12	=12	=12	=12	=12	=12	=12
*	*	*^	*	*	*	*	*	*	*	*	*	*	*	*	*	*
2.BBn/	2.r	2.a-/	8f\L	.	2.ryy	.	.	2f\	mun-	.	2.ryy	.	.	2.ryy	.	.	.
.	.	.	8e-\	.	.	.	.	.	.	.	.	.	.	.	.	.	.
.	.	.	8d\	.	.	.	.	.	.	.	.	.	.	.	.	.	.
.	.	.	8a-\	.	.	.	.	.	.	.	.	.	.	.	.	.	.
.	.	.	8f\	.	.	.	.	4f\	-di	.	.	.	.	.	.	.	.
.	.	.	8d\J	.	.	.	.	.	.	.	.	.	.	.	.	.	.
!!LO:PB:g=original
=13	=13	=13	=13	=13	=13	=13	=13	=13	=13	=13	=13	=13	=13	=13	=13	=13	=13
2.C/	2.r	8g/L	4e-\	.	4E-\yy	.	.	(4e-\	mi-	.	2.ryy	.	.	2.ryy	.	.	.
.	.	8c/	.	.	.	.	.	.	.	.	.	.	.	.	.	.	.
.	.	8g/	4e-\	.	2ryy	.	.	8d\)	.	.	.	.	.	.	.	.	.
.	.	8c/	.	.	.	.	.	8c\	-se-	.	.	.	.	.	.	.	.
.	.	8g 8e-/	4ryy	.	.	.	.	8B-/	-re-	.	.	.	.	.	.	.	.
.	.	8a-J 8c/	.	.	.	.	.	8A-/	-re	.	.	.	.	.	.	.	.
=14	=14	=14	=14	=14	=14	=14	=14	=14	=14	=14	=14	=14	=14	=14	=14	=14	=14
2.En 2.BB-/	2.r	2a-/	8d-X\L	.	2.ryy	.	.	2A-/	no-	.	2.ryy	.	.	2.ryy	.	.	.
.	.	.	8c\	.	.	.	.	.	.	.	.	.	.	.	.	.	.
.	.	.	8B-\	.	.	.	.	.	.	.	.	.	.	.	.	.	.
.	.	.	8c\	.	.	.	.	.	.	.	.	.	.	.	.	.	.
.	.	4g/	8d-\	.	.	.	.	4G/	-bis	.	.	.	.	.	.	.	.
.	.	.	8B-\J	.	.	.	.	.	.	.	.	.	.	.	.	.	.
*	*	*v	*v	*	*	*	*	*	*	*	*	*	*	*	*	*	*
=15	=15	=15	=15	=15	=15	=15	=15	=15	=15	=15	=15	=15	=15	=15	=15	=15
2F 2AA-/	2.r	8f/L	.	2.ryy	.	.	8F/L	fi-	.	2.ryy	.	.	2.ryy	.	.	.
.	.	8g 8c/	.	.	.	.	8G/J	.	.	.	.	.	.	.	.	.
.	.	8a- 8f/	.	.	.	.	8A-/L	-li-	.	.	.	.	.	.	.	.
.	.	8a- 8c/	.	.	.	.	8B-/J	.	.	.	.	.	.	.	.	.
8B-L 8BB-/	.	8cc 8a-/	.	.	.	.	8c\L	-us	.	.	.	.	.	.	.	.
8A-J 8AA-/	.	8ddJ 8f/	.	.	.	.	8d\J	.	.	.	.	.	.	.	.	.
*v	*v	*	*	*	*	*	*	*	*	*	*	*	*	*	*	*
=16	=16	=16	=16	=16	=16	=16	=16	=16	=16	=16	=16	=16	=16	=16	=16
*	*^	*	*	*	*	*	*	*	*	*	*	*	*	*	*
*	*	*^	*	*	*	*	*	*	*	*	*	*	*	*	*	*
(>4G 4GG/	4ee-/	8ee-\L	4e-\	.	2.ryy	.	.	2.e-\	pa-	.	2.ryy	.	.	2.ryy	.	.	.
.	.	8dd\J	.	.	.	.	.	.	.	.	.	.	.	.	.	.	.
4A- 4AA-/	4ff/	4cc/	4f\	.	.	.	.	.	.	.	.	.	.	.	.	.	.
4An 4AAn/	4ff#X/	4ee- 4cc 4f#X\	4ryy	.	.	.	.	.	.	.	.	.	.	.	.	.	.
*	*	*v	*v	*	*	*	*	*	*	*	*	*	*	*	*	*	*
=17	=17	=17	=17	=17	=17	=17	=17	=17	=17	=17	=17	=17	=17	=17	=17	=17
*^	*	*	*	*	*	*	*	*	*	*	*	*	*	*	*	*
*	*^	*	*	*	*	*	*	*	*	*	*	*	*	*	*	*	*
4B-/	2.BB-/	2.rGG	(<16gg/LL	8b- 8g\	.	2.ryy	.	.	8e-\	-tris	.	2.ryy	.	.	2.ryy	.	.	.
.	.	.	16ee-/	.	.	.	.	.	.	.	.	.	.	.	.	.	.	.
.	.	.	16b-/	8r	.	.	.	.	16d\LL	ex-	.	.	.	.	.	.	.	.
.	.	.	16g/JJ)	.	.	.	.	.	16e-\JJ	.	.	.	.	.	.	.	.	.
4F/	.	.	4b- 4a-/	4c\	.	.	.	.	4.f;\	-au-	.	.	.	.	.	.	.	.
4B-;>/)	.	.	4a-;>/	8d\L	.	.	.	.	.	.	.	.	.	.	.	.	.	.
.	.	.	.	8f\J	.	.	.	.	8d\	-di	.	.	.	.	.	.	.	.
*	*v	*v	*	*	*	*	*	*	*	*	*	*	*	*	*	*	*	*
=18	=18	=18	=18	=18	=18	=18	=18	=18	=18	=18	=18	=18	=18	=18	=18	=18	=18
8r	(<2C\	(>4g/	4.e-\	.	2.ryy	.	.	4e-\	.	.	2.ryy	.	.	2.ryy	.	.	.
(<8G/L	.	.	.	.	.	.	.	.	.	.	.	.	.	.	.	.	.
8F/	.	4a-/	.	.	.	.	.	4r	.	.	.	.	.	.	.	.	.
8E-/J)	.	.	8e-\L	.	.	.	.	.	.	.	.	.	.	.	.	.	.
4r	4FF#X\)	4an/)	8d\	.	.	.	.	4r	.	.	.	.	.	.	.	.	.
.	.	.	8c\J	.	.	.	.	.	.	.	.	.	.	.	.	.	.
!!LO:LB:g=original
=19	=19	=19	=19	=19	=19	=19	=19	=19	=19	=19	=19	=19	=19	=19	=19	=19	=19
*	*^	*	*	*	*	*	*	*	*	*	*	*	*	*	*	*	*
(<8.E-/L	4GG\	2.rEE	8g/L	4B-\	.	2.ryy	.	.	2.r	.	.	2.ryy	.	.	2.ryy	.	.	.
.	.	.	8e-/J	.	.	.	.	.	.	.	.	.	.	.	.	.	.	.
32D/LL	.	.	.	.	.	.	.	.	.	.	.	.	.	.	.	.	.	.
32E-/JJJ)	.	.	.	.	.	.	.	.	.	.	.	.	.	.	.	.	.	.
2F/	4FF\	.	8.a-/L	4c\	.	.	.	.	.	.	.	.	.	.	.	.	.	.
.	.	.	16g/K	.	.	.	.	.	.	.	.	.	.	.	.	.	.	.
.	4BB-\	.	8f/	4ryy	.	.	.	.	.	.	.	.	.	.	.	.	.	.
.	.	.	8b-/J	.	.	.	.	.	.	.	.	.	.	.	.	.	.	.
*	*v	*v	*	*	*	*	*	*	*	*	*	*	*	*	*	*	*	*
*	*	*v	*v	*	*	*	*	*	*	*	*	*	*	*	*	*	*
=20	=20	=20	=20	=20	=20	=20	=20	=20	=20	=20	=20	=20	=20	=20	=20	=20
2.EE-\	2.r	8g 8e-/	.	2.ryy	.	.	(4B-\	Sus-	.	2.ryy	.	.	2.ryy	.	.	.
.	.	8B-<L 8G</	.	.	.	.	.	.	.	.	.	.	.	.	.	.
.	.	8e- 8B-< 8G</	.	.	.	.	8c\)	.	.	.	.	.	.	.	.	.
.	.	8g 8e- 8B-/	.	.	.	.	8d\	-ci-	.	.	.	.	.	.	.	.
.	.	8b- 8g 8e-/	.	.	.	.	4e-\	-pe	.	.	.	.	.	.	.	.
.	.	8ee-J 8b- 8g/	.	.	.	.	.	.	.	.	.	.	.	.	.	.
=21	=21	=21	=21	=21	=21	=21	=21	=21	=21	=21	=21	=21	=21	=21	=21	=21
2.C\	2.r	8r	.	2.ryy	.	.	4.e-\	Do-	.	2.ryy	.	.	2.ryy	.	.	.
.	.	8cL 8A-< 8E-</	.	.	.	.	.	.	.	.	.	.	.	.	.	.
.	.	8e- 8c 8A-</	.	.	.	.	.	.	.	.	.	.	.	.	.	.
.	.	8a-J 8e- 8c/	.	.	.	.	8A-/	-mi-	.	.	.	.	.	.	.	.
.	.	8cc 8a- 8e-/	.	.	.	.	4A-/	-ne	.	.	.	.	.	.	.	.
.	.	8ee- 8cc 8a-/	.	.	.	.	.	.	.	.	.	.	.	.	.	.
=22	=22	=22	=22	=22	=22	=22	=22	=22	=22	=22	=22	=22	=22	=22	=22	=22
2FF\	2.r	8r	.	2.ryy	.	.	8.A-/	de-	.	2.ryy	.	.	2.ryy	.	.	.
.	.	8cL 8A-< 8F</	.	.	.	.	.	.	.	.	.	.	.	.	.	.
.	.	.	.	.	.	.	16A-/	-pre-	.	.	.	.	.	.	.	.
.	.	8f 8c 8A-</	.	.	.	.	8G/	-ca-	.	.	.	.	.	.	.	.
.	.	8a-J 8f 8c/	.	.	.	.	8A-/	-ti-	.	.	.	.	.	.	.	.
4BB-\	.	8r	.	.	.	.	8.B-\	-o-	.	.	.	.	.	.	.	.
.	.	8f 8d 8A-</	.	.	.	.	.	.	.	.	.	.	.	.	.	.
.	.	.	.	.	.	.	16F/	-nem	.	.	.	.	.	.	.	.
=23	=23	=23	=23	=23	=23	=23	=23	=23	=23	=23	=23	=23	=23	=23	=23	=23
2EE-\	2.r	8g 8e- 8G</	.	2.ryy	.	.	4G/	no-	.	2.ryy	.	.	2.ryy	.	.	.
.	.	8B-<L 8G</	.	.	.	.	.	.	.	.	.	.	.	.	.	.
.	.	8e-J 8B-< 8G</	.	.	.	.	4B-/	-stram	.	.	.	.	.	.	.	.
.	.	8gL 8e- 8B-</	.	.	.	.	.	.	.	.	.	.	.	.	.	.
4E-\	.	8e- 8B-< 8G</	.	.	.	.	4r	.	.	.	.	.	.	.	.	.
.	.	8b-J 8g 8e-/	.	.	.	.	.	.	.	.	.	.	.	.	.	.
=24	=24	=24	=24	=24	=24	=24	=24	=24	=24	=24	=24	=24	=24	=24	=24	=24
2.D\	2.r	8r	.	2.ryy	.	.	(4B-\	Do-	.	2.ryy	.	.	2.ryy	.	.	.
.	.	8fL 8B-</	.	.	.	.	.	.	.	.	.	.	.	.	.	.
.	.	8b- 8f/	.	.	.	.	8c\)	.	.	.	.	.	.	.	.	.
.	.	8b- 8f/	.	.	.	.	8d\	-mi-	.	.	.	.	.	.	.	.
.	.	8b- 8f/	.	.	.	.	8e-\	-ne	.	.	.	.	.	.	.	.
.	.	8ddJ 8b- 8f/	.	.	.	.	8f\	qui	.	.	.	.	.	.	.	.
=25	=25	=25	=25	=25	=25	=25	=25	=25	=25	=25	=25	=25	=25	=25	=25	=25
2.C\	2.r	8r	.	2.ryy	.	.	2f\	se-	.	2.ryy	.	.	2.ryy	.	.	.
.	.	8gL 8e- 8B-< 8G</	.	.	.	.	.	.	.	.	.	.	.	.	.	.
.	.	8g 8e- 8B-</	.	.	.	.	.	.	.	.	.	.	.	.	.	.
.	.	8gJ 8e-/	.	.	.	.	.	.	.	.	.	.	.	.	.	.
.	.	8gL 8e- 8B-/	.	.	.	.	4e-\	-des	.	.	.	.	.	.	.	.
.	.	8b-J 8g 8e-/	.	.	.	.	.	.	.	.	.	.	.	.	.	.
!!LO:LB:g=original
=26	=26	=26	=26	=26	=26	=26	=26	=26	=26	=26	=26	=26	=26	=26	=26	=26
2.F\	2.r	8r	.	2.ryy	.	.	(4e-\	ad	.	2.ryy	.	.	2.ryy	.	.	.
.	.	8fL 8c< 8A-</	.	.	.	.	.	.	.	.	.	.	.	.	.	.
.	.	8a-J 8f 8c/	.	.	.	.	8d\L	.	.	.	.	.	.	.	.	.
.	.	8ccL 8a- 8e-/	.	.	.	.	8e-\J)	.	.	.	.	.	.	.	.	.
.	.	8a- 8f 8c/	.	.	.	.	8f\	dex-	.	.	.	.	.	.	.	.
.	.	8ccJ 8a- 8e-/	.	.	.	.	16c\	-te-	.	.	.	.	.	.	.	.
.	.	.	.	.	.	.	16c\	-ram	.	.	.	.	.	.	.	.
=27	=27	=27	=27	=27	=27	=27	=27	=27	=27	=27	=27	=27	=27	=27	=27	=27
*	*^	*	*	*	*	*	*	*	*	*	*	*	*	*	*	*
!	!	!	!	!	!	!	!	!LO:TX:t=P:problem=zapis poprawiany	!	!	!	!	!	!	!	!	!
2.BB-/	2.BB-\	2.rGG	8r	.	2.ryy	.	.	4d\	pa-	.	2.ryy	.	.	2.ryy	.	.	.
.	.	.	8d 8B- 8F</	.	.	.	.	.	.	.	.	.	.	.	.	.	.
.	.	.	8fL 8d 8B-/	.	.	.	.	4f 4d\	-tris	.	.	.	.	.	.	.	.
.	.	.	8b- 8f 8d/	.	.	.	.	.	.	.	.	.	.	.	.	.	.
.	.	.	8dd 8b- 8f/	.	.	.	.	4f\	qui	.	.	.	.	.	.	.	.
.	.	.	8b-J 8f 8d/	.	.	.	.	.	.	.	.	.	.	.	.	.	.
*	*v	*v	*	*	*	*	*	*	*	*	*	*	*	*	*	*	*
=28	=28	=28	=28	=28	=28	=28	=28	=28	=28	=28	=28	=28	=28	=28	=28	=28
[>2.A- (>2.C-X/	2.C-\	8e-/	.	2.ryy	.	.	4a-\	tol-	.	2.ryy	.	.	2.ryy	.	.	.
.	.	8a-L 8e-/	.	.	.	.	.	.	.	.	.	.	.	.	.	.
.	.	8ee- 8a-/	.	.	.	.	8g-X\	-lis	.	.	.	.	.	.	.	.
.	.	8cc-X 8a- 8f/	.	.	.	.	8f\	pec-	.	.	.	.	.	.	.	.
.	.	8a- 8e- 8c-X/	.	.	.	.	8f 8e-\	-ca-	.	.	.	.	.	.	.	.
.	.	8e-J 8c- 8A-/	.	.	.	.	8e- 8d\	-ta	.	.	.	.	.	.	.	.
=29	=29	=29	=29	=29	=29	=29	=29	=29	=29	=29	=29	=29	=29	=29	=29	=29
2.A-] [2.BB-/)	2.BB-\	8r	.	2.ryy	.	.	4e- 4c\	mun-	.	2.ryy	.	.	2.ryy	.	.	.
.	.	8dL 8B-< 8F</	.	.	.	.	.	.	.	.	.	.	.	.	.	.
.	.	8f 8d 8B-</	.	.	.	.	8d 8B-\	-di	.	.	.	.	.	.	.	.
.	.	8b- 8f 8d/	.	.	.	.	8r	.	.	.	.	.	.	.	.	.
.	.	8dd 8b- 8f/	.	.	.	.	8B-\	mi-	.	.	.	.	.	.	.	.
.	.	8b-J 8f 8d/	.	.	.	.	8A-\	-se-	.	.	.	.	.	.	.	.
*v	*v	*	*	*	*	*	*	*	*	*	*	*	*	*	*	*
=30	=30	=30	=30	=30	=30	=30	=30	=30	=30	=30	=30	=30	=30	=30	=30
*	*^	*	*	*	*	*	*	*	*	*	*	*	*	*	*
2.G-X 2.BB-/]	2.an/	8r	.	2.ryy	.	.	(4g-X\	-re-	.	2.ryy	.	.	2.ryy	.	.	.
.	.	8e- 8c\	.	.	.	.	.	.	.	.	.	.	.	.	.	.
.	.	8fL 8d\	.	.	.	.	8f\L	.	.	.	.	.	.	.	.	.
.	.	8g-XJ 8e-\	.	.	.	.	8e-\J)	.	.	.	.	.	.	.	.	.
.	.	8fL 8d\	.	.	.	.	8d\L	-re	.	.	.	.	.	.	.	.
.	.	8e-J 8c\	.	.	.	.	8e-\J	.	.	.	.	.	.	.	.	.
*	*v	*v	*	*	*	*	*	*	*	*	*	*	*	*	*	*
=31	=31	=31	=31	=31	=31	=31	=31	=31	=31	=31	=31	=31	=31	=31	=31
*^	*	*	*	*	*	*	*	*	*	*	*	*	*	*	*
(4F 4BB-/	4BB-\	8b-L 8d/	.	2.ryy	.	.	(4f\	no-	.	2.ryy	.	.	2.ryy	.	.	.
.	.	8fJ 8d/	.	.	.	.	.	.	.	.	.	.	.	.	.	.
4A- 4BBn/	4BB\	8r	.	.	.	.	4A-/)	-[[bis]]-	.	.	.	.	.	.	.	.
.	.	8f 8d/	.	.	.	.	.	.	.	.	.	.	.	.	.	.
4Gn 4C/)	4C\	8r	.	.	.	.	4G/	-bis	.	.	.	.	.	.	.	.
.	.	8e- 8c/	.	.	.	.	.	.	.	.	.	.	.	.	.	.
=32	=32	=32	=32	=32	=32	=32	=32	=32	=32	=32	=32	=32	=32	=32	=32	=32
*	*	*^	*	*	*	*	*	*	*	*	*	*	*	*	*	*
2.A- 2.AA-/	2.AA-\	8f/L	4c\	.	2.ryy	.	.	8F/L	fi-	.	2.ryy	.	.	2.ryy	.	.	.
.	.	8g/	.	.	.	.	.	8G/J	.	.	.	.	.	.	.	.	.
.	.	8a- 8f/	2ryy	.	.	.	.	8A-/L	-li-	.	.	.	.	.	.	.	.
.	.	8b-J 8g 8c/	.	.	.	.	.	8B-/J	.	.	.	.	.	.	.	.	.
.	.	8cc 8a-/	.	.	.	.	.	8c\L	-us	.	.	.	.	.	.	.	.
.	.	8dd 8b- 8f/	.	.	.	.	.	8d\J	.	.	.	.	.	.	.	.	.
=33	=33	=33	=33	=33	=33	=33	=33	=33	=33	=33	=33	=33	=33	=33	=33	=33	=33
*	*	*	*^	*	*	*	*	*	*	*	*	*	*	*	*	*	*
4G 4GG/	4GG\	4ee-/	8b-\L	4e-\	.	2.ryy	.	.	2.e-\	pa-	.	2.ryy	.	.	2.ryy	.	.	.
.	.	.	8dd\J	.	.	.	.	.	.	.	.	.	.	.	.	.	.	.
4A- 4AA-/	4AA-\	4ff/	4ee- 4cc-X\	4f\	.	.	.	.	.	.	.	.	.	.	.	.	.	.
4An 4AAn/	4AA\	4ff#X/	4ee- 4ccn\	4f#X\	.	.	.	.	.	.	.	.	.	.	.	.	.	.
*	*	*	*v	*v	*	*	*	*	*	*	*	*	*	*	*	*	*	*
=34	=34	=34	=34	=34	=34	=34	=34	=34	=34	=34	=34	=34	=34	=34	=34	=34	=34
!LO:TX:a:t=P:problem=w źródle inny rytm	!	!	!	!	!	!	!	!	!	!	!	!	!	!	!	!	!
4B-/	2.BB-\	16gg/LL	8b- 8g\	.	2.r;	.	.	8e-\	-tris	.	2.r;	.	.	2.r;	.	.	.
.	.	16ee-/	.	.	.	.	.	.	.	.	.	.	.	.	.	.	.
.	.	16b-/	8r	.	.	.	.	16d\LL	ex-	.	.	.	.	.	.	.	.
.	.	16g/JJ	.	.	.	.	.	16e-\JJ	.	.	.	.	.	.	.	.	.
4D/	.	[4a-/	4c\	.	.	.	.	4.f;\	-au-	.	.	.	.	.	.	.	.
4B-;>/	.	4a-;/]	8d\L	.	.	.	.	.	.	.	.	.	.	.	.	.	.
.	.	.	8f\J	.	.	.	.	8d\	-di	.	.	.	.	.	.	.	.
!!LO:PB:g=original
*	*	*v	*v	*	*	*	*	*	*	*	*	*	*	*	*	*	*
=35	=35	=35	=35	=35	=35	=35	=35	=35	=35	=35	=35	=35	=35	=35	=35	=35
*	*	*	*	*	*	*	*	*	*	*2\right	*	*	*2\right	*	*	*
!	!	!	!	!	!	!	!	!	!	!	!	!	!LO:TX:a:Bi:t=Coro.	!	!	!
8BB-/L	2.EE-\	2g 2e-/	.	2.r	.	.	4e-\	.	.	4r	.	.	4r	.	.	.
8B-J 8E-/	.	.	.	.	.	.	.	.	.	.	.	.	.	.	.	.
8BB-/L	.	.	.	.	.	.	4r	.	.	8r	.	.	8r	.	.	.
!	!	!	!	!	!	!	!	!	!	!	!	!LO:DY:a	!	!	!	!LO:DY:a
8B-J 8E-/	.	.	.	.	.	.	.	.	.	8e-/	Quo	p	8g/	Quo-	.	p
8BB-/L	.	8fL 8d/	.	.	.	.	4r	.	.	8d/	.	.	8f/	-niam	.	.
8B-J 8E-/	.	8a-J 8f/	.	.	.	.	.	.	.	8f/	.	.	8a-/	tu	.	.
=36	=36	=36	=36	=36	=36	=36	=36	=36	=36	=36	=36	=36	=36	=36	=36	=36
*	*	*	*	*	*	*	*^	*	*	*	*	*	*	*	*	*
8BB-/L	2.EE-^\	(4cc 4a- (4d/	.	4r	.	.	4r	4ryy	.	.	4a-/	.	.	4cc\	so-	.	.
8B-J 8E-/	.	.	.	.	.	.	.	.	.	.	.	.	.	.	.	.	.
!	!	!	!	!	!	!	!LO:TX:a:Bi:t=tutti	!	!	!	!	!	!	!	!	!	!
8BB-/L	.	8b-L 8g 8e-/))	.	8r	.	.	8r	8ryy	.	.	8g/	.	.	8b-\	-lus,	.	.
!	!	!	!	!LO:TX:a:Bi:t=Coro.	!	!	!	!	!	!	!	!	!	!	!	!	!
!	!	!	!	!	!	!LO:HP:a	!	!	!	!LO:HP:a	!	!	!LO:HP:a	!	!	!	!
8B-J 8E-/	.	8ee- 8b- 8g/	.	8E-\	tu	<	8B-/	8B-\	tu	<	8g/	.	<	8ee-\	tu	.	<
8BB-/L	.	8dd 8b- 8f/	.	8E-\	.	.	8B-/	8B-\	.	.	8f/	.	.	8dd\	so-	.	.
8B-J 8E-/	.	8ffJ 8dd 8b-/	.	8E-\	.	[[	8B-/	8B-\	.	.	8b-/	.	[[	8ff\	-lus	.	[
=37	=37	=37	=37	=37	=37	=37	=37	=37	=37	=37	=37	=37	=37	=37	=37	=37	=37
!	!	!	!	!	!	!	!LO:TX:a:Bi:t=Solo	!	!	!	!	!	!	!LO:TX:a:Bi:t=Solo	!	!	!
!	!	!	!	!	!	!LO:DY:a	!	!	!	!	!	!	!	!	!	!	!
!	!	!	!	!	!	!LO:HP:a	!	!	!	!LO:DY:a	!	!	!LO:HP:a	!	!	!	!LO:DY:a
8BB-/L	2.EE-^\	4.aa- 4.ff 4.dd 4.b-\	.	2E-\	.	f >	(4.a-/	4.f\	.	[ f	2b-/	.	>	(4.aa- (4.dd\	sanc-	.	f
8B-J 8E-/	.	.	.	.	.	.	.	.	.	.	.	.	.	.	.	.	.
8BB-/L	.	.	.	.	.	.	.	.	.	.	.	.	.	.	.	.	.
!	!	!	!	!	!	!	!	!	!	!LO:HP:a	!	!	!	!	!	!	!
8B-J 8E-/	.	8gg 8ee-\	.	.	.	.	8g/)	8e-\	.	>	.	.	.	8gg 8ee-\))	.	.	.
8BB-/L	.	8ee-L 8g/	.	4E-\	.	]	4e-/	4e-\	.	.	8g/L	.	]	8ee-\L	-tus	.	.
8B-J 8E-/	.	8ccJ 8a-/	.	.	.	.	.	.	.	.	8a-/J	.	.	8cc\J	.	.	.
*	*	*	*	*	*	*	*v	*v	*	*	*	*	*	*	*	*	*
=38	=38	=38	=38	=38	=38	=38	=38	=38	=38	=38	=38	=38	=38	=38	=38	=38
*	*	*^	*	*	*	*	*	*	*	*	*	*	*	*	*	*
!	!	!	!	!	!	!	!LO:DY:a	!	!	!LO:DY:a	!	!	!LO:DY:a	!	!	!	!LO:DY:a
8BB-/L	4EE-\	8b-L 8g/	4ryy	.	2E-\	.	p	8B-/	.	] p	8g/	.	p	8b-/	Sanc-	.	p
8B-J 8E-/	.	8a-J 8f/	.	.	.	.	.	8B-/	.	.	8e-/	.	.	8g/	-tus	.	.
!	!	!	!	!	!	!	!	!	!	!	!LO:TX:t=P:problem=zapis poprawiany	!	!	!	!	!	!
8BB-/L	4EE-\	4.b-/	4e- 4c\	.	.	.	.	4c\	.	.	4e-/	.	.	4.b-/	Do-	.	.
8B-J 8E-/	.	.	.	.	.	.	.	.	.	.	.	.	.	.	.	.	.
8BB-/L	4EE-\	.	4d\	.	4E-\	.	.	4d\	.	.	4d/	.	.	.	.	.	.
8B-J 8E-/	.	8a-/	.	.	.	.	.	.	.	.	.	.	.	8a-/	-mi-	.	.
=39	=39	=39	=39	=39	=39	=39	=39	=39	=39	=39	=39	=39	=39	=39	=39	=39	=39
8EE-/L	2.EE-\	2.g/	([2e-\	.	4E-\	.	.	8e-\	.	.	8e-/	.	.	8g/	-nus	.	.
8BB-/	.	.	.	.	.	.	.	8r	.	.	8r	.	.	8r	.	.	.
8G/	.	.	.	.	4ryy	.	.	4e-^\	.	.	4e-^/	.	.	4g^/	So-	.	.
8F/	.	.	.	.	.	.	.	.	.	.	.	.	.	.	.	.	.
8E-/	.	.	4e-] 4B-\)	.	4ryy	.	.	8B-\	.	.	8e-/	.	.	8g/	-lus	.	.
8D/J	.	.	.	.	.	.	.	8B-\	.	.	8e-/	.	.	8g/	al-	.	.
=40	=40	=40	=40	=40	=40	=40	=40	=40	=40	=40	=40	=40	=40	=40	=40	=40	=40
8D-X/L	2.DD-X\	(2a-/	2.f 2.c-X\	.	2.ryy	.	.	2c-X\	.	.	2f/	.	.	2a-/	-tis-	.	.
8C/	.	.	.	.	.	.	.	.	.	.	.	.	.	.	.	.	.
8D-/	.	.	.	.	.	.	.	.	.	.	.	.	.	.	.	.	.
8AA-/	.	.	.	.	.	.	.	.	.	.	.	.	.	.	.	.	.
8FF/	.	4an/)	.	.	.	.	.	4c-\	.	.	4f/	.	.	4an/	-si-	.	.
8DD-X/J	.	.	.	.	.	.	.	.	.	.	.	.	.	.	.	.	.
!!LO:LB:g=original
=41	=41	=41	=41	=41	=41	=41	=41	=41	=41	=41	=41	=41	=41	=41	=41	=41	=41
8GG-X/L	2.GG-\	2.b- 2.g-X/	8B-\	.	4r	.	.	8B-/	.	.	8g-X/	.	.	8b-\	-mus	.	.
8D-X/	.	.	8r	.	.	.	.	8r	.	.	8r	.	.	8r	.	.	.
8B-/	.	.	4r	.	4r	.	.	8.B-/	.	.	8.g-/	.	.	8.b-^\	Je-	.	.
8A-/	.	.	.	.	.	.	.	.	.	.	.	.	.	.	.	.	.
.	.	.	.	.	.	.	.	16B-/	.	.	16g-/	.	.	16b-\	-su,	.	.
!	!	!	!	!	!	!	!	!	!	!	!	!	!	!	!	!	!LO:HP:a
8G-X/	.	.	4d-X\	.	8.F#X\	Je-	.	8.d-X\	.	.	8.f#X/	.	.	8a-^\	Je-	.	<
8F/J	.	.	.	.	.	.	.	.	.	.	.	.	.	8b-\	-su	.	.
.	.	.	.	.	16F#\	-su	.	16d-\	.	.	16f#/	.	.	.	.	.	.
=42	=42	=42	=42	=42	=42	=42	=42	=42	=42	=42	=42	=42	=42	=42	=42	=42	=42
8En/L	2.EEn\	2bn/	2.g#X 2.dn\	.	2.En\	.	.	2.dn\	.	.	2.g#X/	.	.	(2bn\	Chri-	.	.
8D#X/	.	.	.	.	.	.	.	.	.	.	.	.	.	.	.	.	.
8E/	.	.	.	.	.	.	.	.	.	.	.	.	.	.	.	.	.
8BBn/	.	.	.	.	.	.	.	.	.	.	.	.	.	.	.	.	.
8GG#X/	.	4b#X/	.	.	.	.	.	.	.	.	.	.	.	4b#X\)	.	.	.
8EEn/J	.	.	.	.	.	.	.	.	.	.	.	.	.	.	.	.	.
=43	=43	=43	=43	=43	=43	=43	=43	=43	=43	=43	=43	=43	=43	=43	=43	=43	=43
*	*	*	*	*	*^	*	*	*	*	*	*	*	*	*	*	*	*
8AAn/L	2.AA\	2.cc#X 2.an/	8c#X\	.	8An/	8A\L	.	.	8c#X\	.	.	8an/	.	.	8cc#X\	-ste	.	.
8En/	.	.	8r	.	8r	8G#X\J	.	.	8r	.	.	8r	.	.	8r	.	.	.
8An/	.	.	2en\	.	2ryy	8A-X\L	.	.	4en\	.	.	4a^/	.	.	4cc#^\	cum	.	.
8c#X/	.	.	.	.	.	8c#X\J	.	.	.	.	.	.	.	.	.	.	.	.
8Bn/	.	.	.	.	.	8Bn\	.	.	8e\	.	.	8a/	.	.	8cc#\	san-	.	.
8A/J	.	.	.	.	.	8A-\	.	.	8e\	.	.	8a/	.	.	8cc#\	-cto	.	.
*	*	*	*	*	*v	*v	*	*	*	*	*	*	*	*	*	*	*	*
=44	=44	=44	=44	=44	=44	=44	=44	=44	=44	=44	=44	=44	=44	=44	=44	=44	=44
*	*	*	*^	*	*	*	*	*	*	*	*	*	*	*	*	*	*
8A-X/L	8AA-X\L	2.ddn/	8bn\L	2.f\	.	8A-X\L	.	.	2f\	.	.	(4bn/	.	.	2dd\	spi-	.	.
8G/	8GG\J	.	8cc\J	.	.	8G\	.	.	.	.	.	.	.	.	.	.	.	.
8A-/	2AA-\	.	4a-X\	.	.	8A-\	.	.	.	.	.	4g#X/)	.	.	.	.	.	.
8c-X/	.	.	.	.	.	8c-X\J	.	.	.	.	.	.	.	.	.	.	.	.
8B-/	.	.	4b-X\	.	.	8B-\L	.	.	4f\	.	.	4a#X/	.	.	4dd\	-ri-	.	[[
8A-/J	.	.	.	.	.	8A-\J	.	.	.	.	.	.	.	.	.	.	.	.
*	*	*	*v	*v	*	*	*	*	*	*	*	*	*	*	*	*	*	*
=45	=45	=45	=45	=45	=45	=45	=45	=45	=45	=45	=45	=45	=45	=45	=45	=45	=45
8G/L	8GG\L	4.ee- 4.b- 4.e-/	4.e-\	.	8G\L	.	.	4.e-\	.	.	4.b-X/	.	.	4.ee-\	-tu	.	.
8F#X/	8FF#X\	.	.	.	8F#X\	.	.	.	.	.	.	.	.	.	.	.	.
8G/	8GG\	.	.	.	8G\J	.	.	.	.	.	.	.	.	.	.	.	.
!	!	!	!	!	!	!	!LO:DY:a	!	!	!LO:DY:a	!	!	!LO:DY:a	!	!	!	!LO:DY:a
8E-/	8EE-\	8ee- 8b- 8g/	4.ryy	.	8E-\	.	f	8B-\	.	f	8g/	.	f	8ee-\	in	.	f
8Fn/	8FFn\	8ddL 8b- 8a-/	.	.	8Fn\	.	.	8B-\	.	.	8a-/	.	.	8dd\	glo-	.	.
8G/J	8GG\J	8ee-J 8b- 8g/	.	.	8G\	.	.	8e- 8B-\	.	.	8b-/	.	.	8ee-\	-ria	.	.
*	*	*v	*v	*	*	*	*	*	*	*	*	*	*	*	*	*	*
=46	=46	=46	=46	=46	=46	=46	=46	=46	=46	=46	=46	=46	=46	=46	=46	=46
8A-/L	8AA-\L	8ffL 8cc 8f/	.	8A-\	.	.	8c\	.	.	8a-/	.	.	8ff\	De-	.	.
8F/J	8FF\J	8ccJ 8a- 8f/	.	8F\	.	.	8f 8c\	.	.	8a-/	.	.	8cc\	-i	.	.
!	!	!LO:TX:a:t=P:problem=w źródle inny rytm	!	!	!	!	!	!	!	!	!	!	!	!	!	!
2B-/	4r	2dd 2a- 2f/	.	2B-\	.	.	2f\	.	.	2a-/	.	.	2dd\	pa-	.	.
.	4BB-\	.	.	.	.	.	.	.	.	.	.	.	.	.	.	.
=47	=47	=47	=47	=47	=47	=47	=47	=47	=47	=47	=47	=47	=47	=47	=47	=47
!	!	!	!	!	!	!	!	!	!	!	!	!	!LO:TX:t=P:problem=zapis poprawiany	!	!	!
8r	2.EE-\	2.ee- 2.g 2.e-/	.	2.E-\	tris	.	4e-\	.	.	4g/	.	.	4ee-\	-tris	.	.
8BB-/L	.	.	.	.	.	.	.	.	.	.	.	.	.	.	.	.
8E-/	.	.	.	.	.	.	8r	.	.	8r	.	.	8r	.	.	.
!	!	!	!	!	!	!	!	!	!LO:HP:a	!	!	!LO:HP:a	!	!	!	!LO:HP:a
8G/J	.	.	.	.	.	.	(8B-'\L	.	>	(8g'/	.	>	8ee-'\	tu	.	>
4B-/	.	.	.	.	.	.	8B-'\	.	.	8g'/	.	.	8ee-'\	so-	.	.
.	.	.	.	.	.	.	8B-'\J)	.	.	8g'/)	.	.	8ee-'\	-lus	.	.
!!LO:PB:g=original
=48	=48	=48	=48	=48	=48	=48	=48	=48	=48	=48	=48	=48	=48	=48	=48	=48
*	*	*^	*	*	*	*	*	*	*	*	*	*	*	*	*	*
!LO:TX:a:t=P:problem=w źródle inny rytm	!	!	!	!	!	!	!	!	!	!	!	!	!	!	!	!	!
8r	2.EE-^\	(4ee-/	2.g 2.e-\	.	2.E-\	Tu	.	4B-\	.	.	4g/	.	.	4ee-\	San-	.	.
8BB-/L	.	.	.	.	.	.	.	.	.	.	.	.	.	.	.	.	.
8E-/	.	2b-/)	.	.	.	.	.	(8e-'\	.	.	(8g'/	.	.	(8b-'\	-ctus,	.	.
8G/J	.	.	.	.	.	.	.	8e-'\	.	.	8g'/	.	.	8b-'\	[[so-	tu	.
4B-/	.	.	.	.	.	.	.	8e-'\	.	.	8g'/	.	.	8b-'\	-lus	so-	.
.	.	.	.	.	.	.	.	8e-'\)	.	.	8g'/)	.	.	8b-'\)	al]]	-lus	.
*	*	*v	*v	*	*	*	*	*	*	*	*	*	*	*	*	*	*
=49	=49	=49	=49	=49	=49	=49	=49	=49	=49	=49	=49	=49	=49	=49	=49	=49
!LO:TX:a:t=P:problem=w źródle inny rytm	!	!	!	!	!	!	!	!	!	!	!	!	!	!	!	!
8r	2.EE-^\	4b- 4g/	.	[2E-\	so-	.	4e-\	.	.	4g/	.	.	4b-'\	san-	.	.
8BB-/L	.	.	.	.	.	.	.	.	.	.	.	.	.	.	.	.
8E-/	.	4g 4e-/	.	.	.	.	(8B-'\	.	.	(8e-'/	.	.	(8g'/	-ctus,	.	.
8BB-/J	.	.	.	.	.	.	8B-'\	.	.	8e-'/	.	.	8g'/	tu	.	.
[4E-/	.	8e-L 8G/	.	8E-\]	.	.	8G'/	.	.	8e-'/	.	.	8g 8e-'/	so-	.	.
.	.	8fJ 8A-/	.	8E-\	-lus	.	8A-'/)	.	]]	8e-'/)	.	]]	8f'/)	-lus	.	]]
=50	=50	=50	=50	=50	=50	=50	=50	=50	=50	=50	=50	=50	=50	=50	=50	=50
4E-/]	4EE-\	4g 4B-/	.	8E-\	san	.	8B-'/	.	.	8e-/	.	.	8g/	san-	.	.
!	!	!	!	!	!	!LO:DY:a	!	!	!LO:DY:a	!	!	!LO:DY:a	!	!	!	!LO:DY:a
.	.	.	.	8E-\	.	p	8B-'/	.	p	8e-/	.	p	8g/	-ctus	.	p
4r;	4ryy	4r;	.	4.E-;\	.	.	4.G;/	.	.	4.e-;/	.	.	4.b-;/	Do-	.	.
4r	4ryy	4r	.	.	.	.	.	.	.	.	.	.	.	.	.	.
.	.	.	.	8E-\	.	.	8B- 8G/	.	.	8B-/	.	.	8g/	-mi-	.	.
=51	=51	=51	=51	=51	=51	=51	=51	=51	=51	=51	=51	=51	=51	=51	=51	=51
4r	2ryy	4r	.	[2.E-\	.	.	[2.G/	.	.	[2.B-/	.	.	[2.e-/	-nus.	.	.
4r	.	4r	.	.	.	.	.	.	.	.	.	.	.	.	.	.
4B- 4G/	4E-\	4B- 4G/	.	.	.	.	.	.	.	.	.	.	.	.	.	.
*v	*v	*	*	*	*	*	*	*	*	*	*	*	*	*	*	*
=52	=52	=52	=52	=52	=52	=52	=52	=52	=52	=52	=52	=52	=52	=52	=52
!LO:TX:a:t=P:problem=w źródle inny rytm	!LO:TX:a:t=P:problem=w źródle inny rytm	!	!	!	!	!	!	!	!	!	!	!	!	!	!
2.EE-;\	2.e- 2.B- 2.G/	.	4E-\]	.	.	4G/]	.	.	4B-/]	.	.	4e-/]	.	.	.
.	.	.	4r	.	.	4r	.	.	4r	.	.	4r	.	.	.
.	.	.	4r	.	.	4r	.	.	4r	.	.	4r;	.	.	.
==	==	==	==	==	==	==	==	==	==	==	==	==	==	==	==
*-	*-	*-	*-	*-	*-	*-	*-	*-	*-	*-	*-	*-	*-	*-	*-
!!!system-decoration: [(s1,s2,s3,s4)]{(s5,s6)}
!!!RDF**kern: > = above
!!!RDF**kern: < = below
!!!RDF**kern: @ = marked note, color=blue
!!!RDF**dynam: > = "dim", fontstyle= "bold-italic"
!!!RDF**dynam: < = "cresc", fontstyle= "bold-italic"
!!!RDF**kern: | = vertical stroke
!!!RDF**kern: N = linked
!!!RDF**kern: i = editorial accidental
!!!ENC: Andrzej Gręziak
!!!END: 2021-07-08
!!!EED: Wojciech Jakubiak-Danek
!!!EEV: 2021-07-30
